X: 258
T: 259. Verleih uns Frieden gn\"adiglich
N: Derived from chor259.krn
C: Johann Sebastian Bach
%%abc-version 2.0
%%abcx-abcm2ps-target-version 5.9.1 (29 Sep 2008)
%%abc-creator hum2abc beta
%%abcx-conversion-date 2019/03/11 17:28:19
%%abc-edited-by Craig Stuart Sapp
%%humdrum-veritas 3397727788
%%humdrum-veritas-data 2081666474
%%
%%barnumbers 0
L: 1/4
M: C
%%staves [1 2 3 4]
V: 1 clef=treble
V: 2 clef=treble
V: 3 clef=treble-8
V: 4 clef=bass
K: A
[V:1] F [I:setbarnb 1]| 
[V:2] C | 
[V:3] A | 
[V:4] F,/E,/ | 
[V:1] FF^EF/G/ | 
[V:2] DDC2- | 
[V:3] AAG/B/ A/G/ | 
[V:4] D,C,/B,,/C,^D,/^E,/ | 
[V:1] AG!fermata!FA | 
[V:2] C/F/ F/^E/!fermata!CF | 
[V:3] Fc/B/!fermata!Ac | 
[V:4] F,/B,,/C,!fermata!F,F, | 
[V:1] BBc/B/A | 
[V:2] =E/F/GA2- | 
[V:3] Bee3/d//c// | 
[V:4] G,F,/E,/ A,/G,/ F,/E,/ | 
[V:1] B2!fermata!cc | 
[V:2] A/G//F//G!fermata!AA | 
[V:3] Be!fermata!ee | 
[V:4] D,E,!fermata!A,,A,/G,/ | 
[V:1] cBc/B/A | 
[V:2] A^E/F/GF | 
[V:3] e/d/dcc | 
[V:4] F,G,/F,/^E,F,/=E,/ | 
[V:1] B/A/G!fermata!FF/G/ | 
[V:2] F=E!fermata!^DD/^E/ | 
[V:3] BB!fermata!BB | 
[V:4] ^D,E,!fermata!B,,B, | 
[V:1] AABA/G/ | 
[V:2] FFG/F/^E | 
[V:3] cddc/B/ | 
[V:4] F,/E,/ D,/C,/B,,C, | 
[V:1] F2!fermata!FB | 
[V:2] F/=E/D!fermata!CE | 
[V:3] A/^A/B!fermata!AB | 
[V:4] D,C,/B,,/!fermata!F,G, | 
[V:1] cBF/G/A | 
[V:2] EED/E/F | 
[V:3] AB/c/dc | 
[V:4] A,G,/A,/B,A,/B,/ | 
[V:1] G/F/G!fermata!FF | 
[V:2] F^E!fermata!CC | 
[V:3] c3/B/!fermata!AA | 
[V:4] CC,!fermata!F,F,/G,/ | 
[V:1] F=EAB | 
[V:2] CCDD | 
[V:3] AGFG | 
[V:4] A,/B,/CC/D/ C/B,/ | 
[V:1] c/B/ABB | 
[V:2] CCFE | 
[V:3] A/G/AAG | 
[V:4] A,/^E,/ F,/C,/ D,/B,,/=E, | 
[V:1] !fermata!c2d2 | 
[V:2] !fermata!E2B2 | 
[V:3] !fermata!A2G2 | 
[V:4] !fermata!A,,2B,,2 | 
[V:1] cB/c//d//B3/A/ | 
[V:2] EFEE | 
[V:3] AAA/F/ G/d/ | 
[V:4] C,D,E,E, | 
[V:1] !fermata!A3c | 
[V:2] !fermata!E3G | 
[V:3] !fermata!c3c | 
[V:4] !fermata!A,,3^E, | 
[V:1] c/B/AB/c/d | 
[V:2] A/G/FFF/^E/ | 
[V:3] f3/e/ d/c/ B/G/ | 
[V:4] F,3/F,/ G,/^A,/B, | 
[V:1] !fermata!c2=ec | 
[V:2] !fermata!F2G/B/ B/A/ | 
[V:3] !fermata!=A2Be | 
[V:4] !fermata!F,2=E,E, | 
[V:1] dc/B/cc | 
[V:2] A/G/ A/G/ A/B/c- | 
[V:3] ee/d/ c/B/ A/G/ | 
[V:4] E,E,E,E, | 
[V:1] dc/d/ e/d/c | 
[V:2] c/B/AEE | 
[V:3] F/G/ABA | 
[V:4] E,F,G,A, | 
[V:1] B2!fermata!A2 | 
[V:2] FE/D/!fermata!C2 | 
[V:3] AG!fermata!E2 | 
[V:4] D,E,!fermata!A,,2 | 
[V:1] ccAB | 
[V:2] EEFF | 
[V:3] AAAd | 
[V:4] A,,/B,,/ C,/A,,/ D,/C,/ D,/E,/ | 
[V:1] AG!fermata!F2 | 
[V:2] FEE!fermata!D | 
[V:3] cB!fermata!B2 | 
[V:4] F,G,/A,/!fermata!B,2 | 
[V:1] EF/G/AF | 
[V:2] CDED | 
[V:3] GA/B/cB | 
[V:4] C,3/B,,/A,,B,,/C,/ | 
[V:1] !fermata!F3E | 
[V:2] !fermata!D3C | 
[V:3] !fermata!A3A/G/ | 
[V:4] !fermata!D,3A,/G,/ | 
[V:1] FGAG | 
[V:2] C3D/=E/ | 
[V:3] FBAB | 
[V:4] A,/G,/F,/^E,/F,B,,/C,/ | 
[V:1] F3^E | 
[V:2] FG/A/DC | 
[V:3] AG/F/ G/A/B | 
[V:4] D,/C,/B,,/A,,/B,,C, | 
[V:1] !fermata!F3 |]  
[V:2] !fermata!C3 |]  
[V:3] !fermata!^A3 |]  
[V:4] !fermata!F,3 |]  



